X: 10941
T: FISHER'S HORNPIPE
T: Known also as "Blanchard's Hornpipe."
%R: hornpipe, reel
B: W. Hamilton "Universal Tune-Book" Vol. 1 Glasgow 1844 p.94 #1
S: http://imslp.org/wiki/Hamilton's_Universal_Tune-Book_(Various)
Z: 2016 John Chambers <jc:trillian.mit.edu>
M: C
L: 1/8
K: F
% - - - - - - - - - - - - - - - - - - - - - - - - -
(c/d/e) |\
fcAc BdcB | AcAc BdcB | AFAF BGBG | cAGF EGEC |\
fcAc BdcB | AcAc BdcB | Acfa bgfe | f2f2f2 :|
|: ef |\
gece gebg | afcf afc'a | gece geba | gfed c4 |\
dBAB dBfd | cAFA cAfc | dfed cBAG | F2F2F2 :|
% - - - - - - - - - - - - - - - - - - - - - - - - -

%%sep 1 1 500
%%sep 1 1 500

